images/logo-bank-psb.svg

<svg width="88" height="27" viewBox="0 0 88 27" fill="none" xmlns="http://www.w3.org/2000/svg">
<path fill-rule="evenodd" clip-rule="evenodd" d="M17.9516 17.8906H8.99791H9.07801L9.05115 9.02653H17.9265L17.9516 17.8906ZM54.2786 13.4187C54.2786 16.3401 55.3211 18.1515 56.9321 20.1038C57.3504 20.6107 58.9775 21.7677 59.6302 22.0327C61.0468 22.6077 61.9293 22.9216 63.7652 22.9216C65.4376 22.9216 67.162 22.3348 68.2262 21.7203C68.9538 21.3001 70.97 19.7931 71.1791 19.0085C71.0306 18.7865 68.5708 16.225 68.2295 16.1337C67.9149 17.314 65.6979 18.6094 63.9247 18.6094C62.6401 18.6094 61.2977 18.1166 60.4347 17.234C57.728 14.4664 59.1615 8.38762 63.3668 8.38762H64.2437C65.6502 8.38762 67.3521 9.46856 67.9108 10.3042C68.1324 10.1555 70.6895 7.6915 70.7806 7.34943C69.8988 6.03026 67.5756 4.73012 65.9179 4.31464C59.9707 2.82444 54.2787 7.02815 54.2787 13.4185L54.2786 13.4187ZM35.8634 22.5222H40.4074C40.5912 22.5222 40.6465 22.4668 40.6465 22.2827V8.62737H47.6619V22.2827C47.6619 22.4668 47.7173 22.5222 47.901 22.5222H52.2058C52.3895 22.5222 52.445 22.4668 52.445 22.2827V4.47486H35.8633V22.5223L35.8634 22.5222ZM81.0644 18.6094H77.5568V15.0956H81.3035C82.26 15.0956 83.2168 15.6688 83.2168 16.613C83.2168 17.1848 83.2583 17.8196 82.5281 18.2389C82.1369 18.4632 81.6469 18.6094 81.0644 18.6094ZM72.7736 22.2827C72.7736 22.4668 72.829 22.5222 73.0127 22.5222H80.5063C82.823 22.5222 84.2487 22.3543 85.7349 21.4512C86.3223 21.0942 86.9397 20.4791 87.2803 19.8848C87.9912 18.6444 88 17.7791 88 16.3732C88 12.8883 84.923 11.1827 81.5427 11.1827H77.5568V8.62725H86.2462C86.4298 8.62725 86.4853 8.5717 86.4853 8.38762V4.47475H72.7736V22.2826V22.2827ZM9.0732 8.86689L9.07789 0.00285264L1.2054 7.76891C-0.421092 9.39819 0.0694362 8.35378 0.0694362 13.4187V26.9942L8.44394 26.9982C9.11858 27.0046 8.92861 27.0244 9.53605 26.4152C10.3854 25.5634 17.5372 18.2813 17.9516 18.0503L17.926 26.9144C18.2221 26.8352 18.3434 26.6178 18.5443 26.4152L25.7988 19.1484C27.4251 17.519 26.9347 18.5634 26.9347 13.4984V0.00285264L18.6425 0.00144164C17.7483 -0.00830823 17.9478 0.0183525 17.4679 0.501852C16.6456 1.33071 9.44775 8.62431 9.07296 8.86677L9.0732 8.86689Z" fill="black"/>
</svg>

<svg width="88" height="27" fill="none" xmlns="http://www.w3.org/2000/svg"><path fill-rule="evenodd" clip-rule="evenodd" d="M17.952 17.89H8.998h.08l-.027-8.863h8.876l.025 8.864zm36.327-4.471c0 2.921 1.042 4.732 2.653 6.685.418.507 2.045 1.664 2.698 1.929 1.417.575 2.3.889 4.135.889 1.673 0 3.397-.587 4.461-1.202.728-.42 2.744-1.927 2.953-2.711-.148-.223-2.608-2.784-2.95-2.875-.314 1.18-2.531 2.475-4.304 2.475-1.285 0-2.627-.492-3.49-1.375-2.707-2.768-1.274-8.846 2.932-8.846h.877c1.406 0 3.108 1.08 3.667 1.916.221-.149 2.778-2.613 2.87-2.955-.882-1.319-3.205-2.619-4.863-3.034-5.947-1.49-11.64 2.713-11.64 9.104zm-18.416 9.103h4.544c.184 0 .24-.055.24-.24V8.628h7.015v13.656c0 .184.055.24.239.24h4.305c.183 0 .239-.056.239-.24V4.475H35.863v18.047zm45.201-3.913h-3.507v-3.513h3.746c.957 0 1.914.573 1.914 1.517 0 .572.041 1.207-.689 1.626-.391.224-.881.37-1.464.37zm-8.29 3.674c0 .184.055.24.239.24h7.493c2.317 0 3.743-.169 5.229-1.072.587-.357 1.205-.972 1.545-1.566.711-1.24.72-2.106.72-3.512 0-3.485-3.077-5.19-6.457-5.19h-3.986V8.627h8.69c.183 0 .238-.055.238-.24V4.476H72.774v17.808zM9.074 8.867L9.077.003 1.205 7.769C-.42 9.399.07 8.354.07 13.419v13.575l8.375.004c.675.007.485.026 1.092-.583.85-.852 8.001-8.134 8.416-8.365l-.026 8.864c.296-.079.417-.296.618-.499l7.255-7.267c1.626-1.629 1.136-.585 1.136-5.65V.003L18.642 0c-.894-.01-.694.017-1.174.5-.822.83-8.02 8.123-8.395 8.366z" fill="#000"/></svg>
